X:1
T:Wohlfahrt 1  (Op. 45 No. 1 )
C:Franz Wohlfahrt / K.H. Aiquoni
L:1/8
Q:1/4=100
M:4/4
I:linebreak $
K:C
"C""^\n              \n              \n\n" cBcB cded | cBcB cGEG | cBcB cded | cBcB cGEG | 
"C" cBcB cdef |"G" gaba gfed |"C" cBcB cBAG |"G" FEDC B,G,A,B, |"C" CB,CB, CB,CB, | CEGc ecGE | 
CB,CB, CB,CB, | CEGc ecGE |"Dm" FGAG FGAG | FGAG FEDC |"G" B,A,G,A, B,CDE | FEDE FGAB | 
"C" cBcd efga |"G" baga baga | baga gfdB | GBdf gfdB |"C" cBcB cded |"C" cBcB cGEG |"C" cBcB cded | 
"C" cBcB cGEG |"C" cded cded |"C" cecG EcGE |"C" CB,CB, C"G"G,A,B, |"C" C6 z2 |] 



